dist/svgs/crypto-icons/icons/omni.svg

<?xml version="1.0" encoding="UTF-8" standalone="yes"?>
<svg xmlns="http://www.w3.org/2000/svg" xmlns:xlink="http://www.w3.org/1999/xlink" width="512px" height="512px" viewBox="0 0 384 384" version="1.1">
  <g id="surface1">
    <path style=" stroke:none;fill-rule:nonzero;fill:rgb(0%,0%,0%);fill-opacity:1;" d="M 77.960938 17.027344 L 16.773438 17.027344 L 16.773438 78.34375 C 32.679688 53.867188 53.519531 32.984375 77.960938 17.027344 Z M 365.769531 76.703125 L 365.769531 17.027344 L 305.660156 17.027344 C 329.546875 32.621094 350 52.925781 365.769531 76.703125 Z M 306.539062 366.019531 L 365.769531 366.019531 L 365.769531 306.921875 C 350.195312 330.398438 330.050781 350.496094 306.539062 366.019531 Z M 16.773438 305.28125 L 16.773438 366.019531 L 77.085938 366.019531 C 53.019531 350.136719 32.488281 329.457031 16.773438 305.28125 Z M 16.773438 305.28125 "/>
    <path style=" stroke:none;fill-rule:nonzero;fill:rgb(0%,0%,0%);fill-opacity:1;" d="M 383.621094 191.8125 C 383.621094 86.046875 297.578125 0 191.808594 0 C 86.042969 0 0 86.046875 0 191.8125 C 0 297.578125 86.046875 383.621094 191.808594 383.621094 C 297.574219 383.621094 383.621094 297.578125 383.621094 191.8125 Z M 191.808594 331.679688 C 114.6875 331.679688 51.941406 268.933594 51.941406 191.8125 C 51.941406 114.6875 114.6875 51.941406 191.808594 51.941406 C 268.933594 51.941406 331.679688 114.6875 331.679688 191.8125 C 331.679688 268.933594 268.933594 331.679688 191.808594 331.679688 Z M 191.808594 331.679688 "/>
  </g>
</svg>

<svg xmlns="http://www.w3.org/2000/svg" viewBox="0 0 384 384"><path d="M77.96 17.027H16.774v61.317a209.667 209.667 0 0161.188-61.317zm287.81 59.676V17.027h-60.11a209.635 209.635 0 0160.11 59.676zM306.54 366.02h59.23v-59.098a209.789 209.789 0 01-59.23 59.098zM16.772 305.28v60.739h60.313a209.712 209.712 0 01-60.313-60.739zm0 0"/><path d="M383.621 191.813C383.621 86.046 297.578 0 191.81 0 86.043 0 0 86.047 0 191.813 0 297.577 86.047 383.62 191.809 383.62c105.765 0 191.812-86.043 191.812-191.808zM191.81 331.68c-77.121 0-139.868-62.746-139.868-139.868 0-77.125 62.746-139.87 139.868-139.87 77.125 0 139.87 62.745 139.87 139.87 0 77.122-62.745 139.868-139.87 139.868zm0 0"/></svg>
